golem.svg

<svg width="120" height="56" viewBox="0 0 120 56" fill="none" xmlns="http://www.w3.org/2000/svg">
<path
  d="M95.7753 8.95329V27.7653H97.5929V10.7976H106.979V27.7653H108.796V10.7976H118.182V27.7653H120V8.95329H95.7753V8.95329ZM37.973 8.2491C35.3291 8.2491 32.8174 9.28862 30.9336 11.2C29.0498 13.1114 28.0253 15.6263 28.0253 18.3425C28.0253 21.0252 29.0498 23.5737 30.9336 25.485C32.8174 27.3964 35.2961 28.4359 37.973 28.4359C40.6169 28.4359 43.1286 27.3964 45.0124 25.485C46.8962 23.5737 47.9207 21.0587 47.9207 18.3425C47.9207 15.6599 46.8962 13.1114 45.0124 11.2C43.0956 9.32216 40.6169 8.2491 37.973 8.2491V8.2491ZM43.7235 24.2108C42.2032 25.7868 40.1542 26.6252 37.973 26.6252C35.7918 26.6252 33.7428 25.7533 32.2225 24.2108C30.7023 22.6347 29.843 20.5892 29.843 18.376C29.843 16.1629 30.7023 14.0838 32.2225 12.5413C33.7428 10.9653 35.7918 10.1269 37.973 10.1269C40.1542 10.1269 42.2032 10.9988 43.7235 12.5413C45.2437 14.1174 46.103 16.1629 46.103 18.376C46.103 20.5557 45.2437 22.6347 43.7235 24.2108ZM84.737 11.2335C82.8532 9.32216 80.3746 8.28264 77.6976 8.28264C75.0537 8.28264 72.542 9.32216 70.6582 11.2335C68.7744 13.1449 67.7499 15.6599 67.7499 18.376C67.7499 21.0587 68.7744 23.6072 70.6582 25.5186C72.542 27.4299 75.0207 28.4695 77.6976 28.4695C80.3746 28.4695 82.8532 27.4299 84.737 25.5186L83.4481 24.2108C81.9278 25.7868 79.8788 26.6252 77.6976 26.6252C75.5164 26.6252 73.4674 25.7533 71.9471 24.2108C70.4269 22.6347 69.5676 20.5892 69.5676 18.376H87.6453C87.6453 15.6599 86.6208 13.1114 84.737 11.2335V11.2335ZM71.9802 12.5078C73.5004 10.9317 75.5494 10.0934 77.7306 10.0934C79.9119 10.0934 81.9609 10.9653 83.4811 12.5078C84.5717 13.6144 85.3319 15.0228 85.6624 16.4982H69.799C70.1294 15.0228 70.8565 13.6479 71.9802 12.5078ZM22.0766 4.72814L16.293 10.5964C14.5084 9.08743 12.2941 8.2491 9.94767 8.2491C7.30377 8.2491 4.79207 9.28862 2.90829 11.2C1.02451 13.1114 0 15.6599 0 18.3425C0 21.0252 1.02451 23.5737 2.90829 25.485C4.56073 27.1617 6.7089 28.2012 9.02231 28.4024V35.8467C6.7089 36.0479 4.56073 37.0539 2.90829 38.7641C1.02451 40.6755 0 43.224 0 45.9066C0 48.5892 1.02451 51.1377 2.90829 53.0491C4.79207 54.9605 7.27072 56 9.94767 56C12.5916 56 15.1033 54.9605 16.9871 53.0491C18.8708 51.1377 19.8953 48.6228 19.8953 45.9066C19.8953 43.1904 18.8708 40.6755 16.9871 38.7641C15.3346 37.0874 13.1865 36.0479 10.873 35.8467V28.4024C13.1865 28.2012 15.3346 27.1952 16.9871 25.485C18.8708 23.5737 19.8953 21.0587 19.8953 18.3425C19.8953 15.9617 19.0691 13.6814 17.5819 11.8707L23.3655 6.0024L22.0766 4.72814V4.72814ZM15.6982 40.0719C17.2184 41.6479 18.0777 43.6934 18.0777 45.9066C18.0777 48.1198 17.2184 50.1988 15.6982 51.7413C14.1779 53.3174 12.1289 54.1557 9.94767 54.1557C7.76646 54.1557 5.71743 53.2838 4.19719 51.7413C2.67695 50.1653 1.81768 48.1198 1.81768 45.9066C1.81768 43.6934 2.67695 41.6144 4.19719 40.0719C5.71743 38.4958 7.76646 37.6575 9.94767 37.6575C12.1289 37.6575 14.1779 38.4958 15.6982 40.0719ZM18.0777 18.376C18.0777 20.5892 17.2184 22.6683 15.6982 24.2108C14.1779 25.7868 12.1289 26.6252 9.94767 26.6252C7.76646 26.6252 5.71743 25.7533 4.19719 24.2108C2.67695 22.6347 1.81768 20.5892 1.81768 18.376C1.81768 16.1629 2.67695 14.0838 4.19719 12.5413C5.71743 10.9653 7.76646 10.1269 9.94767 10.1269C12.1289 10.1269 14.1779 10.9988 15.6982 12.5413C17.2514 14.0838 18.0777 16.1629 18.0777 18.376V18.376ZM56.943 27.5305H58.7607V0H56.943V27.5305Z" fill="white"/>
</svg>

<svg xmlns="http://www.w3.org/2000/svg" width="120" height="56" fill="none"><path d="M95.775 8.953v18.812h1.818V10.798h9.386v16.968h1.817V10.798h9.386v16.968H120V8.953H95.775h0zm-57.802-.704c-2.644 0-5.156 1.04-7.039 2.951s-2.908 4.426-2.908 7.143a10.12 10.12 0 0 0 2.908 7.142 9.77 9.77 0 0 0 7.039 2.951c2.644 0 5.156-1.04 7.039-2.951s2.908-4.426 2.908-7.142a10.12 10.12 0 0 0-2.908-7.143c-1.917-1.878-4.395-2.951-7.039-2.951h0zm5.751 15.962c-1.52 1.576-3.569 2.414-5.751 2.414a8.04 8.04 0 0 1-5.751-2.414c-1.52-1.576-2.379-3.622-2.379-5.835a8.28 8.28 0 0 1 2.379-5.835c1.52-1.576 3.569-2.414 5.751-2.414a8.04 8.04 0 0 1 5.751 2.414c1.52 1.576 2.38 3.622 2.38 5.835 0 2.18-.859 4.259-2.379 5.835zm41.013-12.977a9.77 9.77 0 0 0-7.039-2.951c-2.644 0-5.156 1.04-7.039 2.951s-2.908 4.426-2.908 7.143a10.12 10.12 0 0 0 2.908 7.143 9.77 9.77 0 0 0 7.039 2.951 9.77 9.77 0 0 0 7.039-2.951l-1.289-1.308c-1.52 1.576-3.569 2.414-5.751 2.414a8.04 8.04 0 0 1-5.75-2.414c-1.52-1.576-2.38-3.622-2.38-5.835h18.078c0-2.716-1.025-5.265-2.908-7.143h0zM71.98 12.508c1.52-1.576 3.569-2.414 5.75-2.414a8.04 8.04 0 0 1 5.751 2.414c1.091 1.107 1.851 2.515 2.181 3.99H69.799c.33-1.475 1.057-2.85 2.181-3.99zm-49.904-7.78l-5.784 5.868c-1.785-1.509-3.999-2.347-6.345-2.347-2.644 0-5.156 1.04-7.039 2.951A10.12 10.12 0 0 0 0 18.343a10.12 10.12 0 0 0 2.908 7.142c1.652 1.677 3.801 2.716 6.114 2.917v7.444a9.6 9.6 0 0 0-6.114 2.917A10.12 10.12 0 0 0 0 45.907a10.12 10.12 0 0 0 2.908 7.143A9.77 9.77 0 0 0 9.948 56c2.644 0 5.156-1.039 7.039-2.951s2.908-4.426 2.908-7.143-1.024-5.231-2.908-7.142c-1.653-1.677-3.801-2.716-6.114-2.917v-7.444a9.6 9.6 0 0 0 6.114-2.917c1.884-1.911 2.908-4.426 2.908-7.142 0-2.381-.826-4.661-2.313-6.472l5.784-5.868-1.289-1.274h0zm-6.378 35.344c1.52 1.576 2.38 3.621 2.38 5.835a8.28 8.28 0 0 1-2.379 5.835c-1.52 1.576-3.569 2.414-5.751 2.414a8.04 8.04 0 0 1-5.75-2.414c-1.52-1.576-2.38-3.622-2.38-5.835a8.28 8.28 0 0 1 2.38-5.835c1.52-1.576 3.569-2.414 5.75-2.414s4.23.838 5.751 2.414zm2.38-21.696a8.28 8.28 0 0 1-2.379 5.835c-1.52 1.576-3.569 2.414-5.751 2.414a8.04 8.04 0 0 1-5.75-2.414c-1.52-1.576-2.38-3.622-2.38-5.835a8.28 8.28 0 0 1 2.38-5.835c1.52-1.576 3.569-2.414 5.75-2.414a8.04 8.04 0 0 1 5.751 2.414c1.553 1.543 2.38 3.622 2.38 5.835h0zm38.865 9.154h1.818V0h-1.818v27.531z" fill="#000"/></svg>
